X:58
T:I will have a Wife of my Own. JBa.57
T:I Have a Wife of my Own,aka, JBa.57
M:9/8
L:1/8
Q:3/8=120
S:Joseph Barnes MS,Carlisle,1762.
R:.slip jig
O:England
A:Carlisle
H:See Paul's notes
Z:vmp.C.Graebe.
K:G major
"_no key/time sig"(EFGE) G2 A2("sh"cB) | (EFGE) G2 B AFD |\
(EFGE) G2 A (c2B2) | AFD D2 B AFD :|!
|:G2 cAc BdB | BGE G2 B AFD | G2 cAc BdB |\
AFD D2E AFD :|!
|: g2G2 B g2 | (gfe) G2 B AFD |\
g2 G2 B (cB) | AFD D2 B2 AFD ||!
zzzzzzzz|zzzzzzzzz||!
"^Edited version.CGr"
|:(4(EFGE) G2 A("sh"c2B) | (4(EFGE) G2 B AFD |\
(4(EFGE) G2 A (c2B) | AFD D2 B AFD :|!
|:G3 cAc BdB | BGE G2 B AFD | G3 cAc BdB |\
AFD D2E AFD :|!
|: g3G2 B g3 | (gfe) G2 B AFD |\
g3 G2 B (c2B) | AFD D2 B AFD ?

